X:1
T:May The Good Lord Bless And Keep You
T:May The Good Lord Bless And Keep You
T:Meredith Wilson
C:Meredith Willson
Z:All Rights Reserved
L:1/8
M:4/4
K:C
V:1 treble 
%%MIDI program 40
%%MIDI control 7 100
%%MIDI control 10 64
V:1
 z4 z2 EF |"C" G2 E2"E7" c3 B |"F" d2 c2"F#dim" B2 A2 |"C/G" A2 G4 EE |"G7" G2 F4 EF | %5
w: ||||* * May The|
"C" G2 E2 c3 B |"F" B2 A4 DE |"Dm7" F2 D2"G7" B3 A |"C" G6 CD | E2 C2"A7" F3 E | %10
w: Good Lord Bless And|Keep you, Wheth- er|near or far a-|way, May you|find that long a-|
"Dm" G2 F2"A7" E2"Dm7" F2 |"G9" A6"G+" G2 |"C""G7" G6 EF |"C" G2 E2 c3 B |"F" B2 A4 DE | %15
w: wait- ed gold- en|day to-|day. May your|trou- bles all be|small ones, And your|
"Dm7" F2 D2"G7" B3 A |"C" G6 CD | E2 C2"A7" F3 E |"Dm" G2 F2"A7" E2"Dm7" F2 |"G7" A6 B,2 | %20
w: for- tune ten times|ten, May the|good Lord bless and|keep you till we|meet a-|
"C" C6 CC |"F" c3 c B2 A2 |"C" G2 E4 CC |"F" c c2 c B2 A2 |"C" G6 CC |"F" c3 c B2 A2 | %26
w: gain. May you|walk with sun- light|shin- ing, And a|blue- bird in ev- 'ry|tree, May there|be a sil- ver|
"C" G2 E4 CD |"Am7" E2 A2"D7" B2 c2 |"Dm7""G7" d6 EF |"C" G2 E2 c3 B |"F" B2 A4 DE | %31
w: lin- ing, Back of|ev- 'ry cloud you|see. Fill your|dreams with sweet to-|mor- rows, Nev- er|
"Dm7" F2 D2"G7" B3 A |"C" G6 CD | E2 C2"A7" F3 E |"Dm" G2 F2"A7" E2"Dm7" F2 |"G7" A6"G+" G2 | %36
w: mind what might have|been, May the|Good Lord Bless And|Keep You till we|meet a-|
"C""G7" G6 EF |"Cmaj7" G2 E2"E+7" c3 B |"F" d2 c2"F#dim" B2 A2 |"C/G" A2 G4 EE | %40
w: gain: May The|Good Lord Bless And|Keep You till we|meet, * Till we|
"G7" G2"Dm7" F4"Fdim" d2 |"C""F" c8- |"Fm6""C" c6 z2 |] %43
w: meet * a-|gain-||

